libs/ui/packages/crypto-icons/src/svg/SIN.svg

<svg width="24" height="24" viewBox="0 0 24 24" fill="none">
<path d="M4.50046 12.0926C4.49191 11.2571 4.62036 10.4258 4.88071 9.63182C5.17465 8.73145 5.63655 7.89494 6.24196 7.16657C6.92884 6.33087 7.79192 5.65731 8.76946 5.19407C9.4173 4.88584 10.1082 4.67772 10.8185 4.57682C11.2454 4.51363 11.6772 4.48953 12.1085 4.50482C12.9602 4.53596 13.7997 4.71777 14.588 5.04182C14.6 5.04707 14.6142 5.05232 14.6157 5.06732C14.6172 5.08682 14.6 5.09282 14.5857 5.09882L14.3157 5.20382C13.7275 5.43231 13.1526 5.69372 12.5937 5.98682C11.9735 6.31457 11.378 6.68207 10.8252 7.12082C10.3452 7.50257 9.90646 7.92707 9.55021 8.43557C9.31021 8.77757 9.12121 9.14507 9.01771 9.55532C8.88571 10.0743 8.91796 10.5881 9.06796 11.0973C9.17821 11.4738 9.34396 11.8263 9.52696 12.1698C9.75796 12.6048 10.0197 13.0211 10.2605 13.4501C10.4795 13.8401 10.6835 14.2376 10.8185 14.6688C10.9122 14.9696 10.9685 15.2778 10.9625 15.5943C10.9524 16.0048 10.8466 16.4072 10.6535 16.7696C10.4262 17.2076 10.115 17.5766 9.76846 17.9171C9.44821 18.2313 9.10021 18.5081 8.74096 18.7721C8.68846 18.8111 8.64721 18.8096 8.59246 18.7811C8.06907 18.5151 7.57935 18.1875 7.13371 17.8053C6.59329 17.3419 6.12178 16.8037 5.73346 16.2071C5.09591 15.2273 4.69201 14.1142 4.55296 12.9536C4.51585 12.6681 4.49831 12.3804 4.50046 12.0926Z" fill="#F5342E"/>
<path d="M9.03503 18.9303C9.04853 18.898 9.08228 18.8973 9.10778 18.8883C9.63182 18.6967 10.1473 18.4825 10.6528 18.2463C11.2453 17.9673 11.822 17.6583 12.368 17.2975C12.7945 17.0204 13.196 16.7068 13.568 16.36C13.934 16.015 14.258 15.637 14.51 15.202C14.714 14.8495 14.852 14.4738 14.897 14.068C14.9343 13.6991 14.8994 13.3264 14.7943 12.9708C14.6818 12.574 14.5055 12.2043 14.3075 11.8435C14.0705 11.4108 13.8013 10.996 13.553 10.57C13.3423 10.2078 13.1458 9.83876 13.0033 9.44351C12.8596 9.06376 12.7988 8.65769 12.8248 8.25251C12.845 7.97501 12.917 7.70801 13.0288 7.45151C13.1968 7.06601 13.439 6.72926 13.7203 6.41876C14.1313 5.96351 14.609 5.58626 15.107 5.23076C15.1618 5.19101 15.2075 5.18651 15.2683 5.21726C15.7978 5.48276 16.2928 5.79926 16.7495 6.17501C17.2168 6.55976 17.6323 6.99251 17.9945 7.47476C18.8549 8.61319 19.3684 9.97569 19.4735 11.3988C19.49 11.635 19.505 11.8713 19.4983 12.1083C19.4822 12.798 19.3732 13.4824 19.1743 14.143C18.7864 15.4136 18.0688 16.5587 17.0945 17.4618C16.0201 18.4579 14.682 19.1244 13.2395 19.3818C12.7316 19.4709 12.2161 19.5096 11.7005 19.4973C10.8129 19.4746 9.93592 19.2982 9.10853 18.976C9.08153 18.964 9.05003 18.961 9.03503 18.931V18.9303Z" fill="#F5342E"/>
</svg>

<svg width="24" height="24" viewBox="0 0 24 24" fill="none"><path fill="#f5342e" d="M4.5 12.093a7.7 7.7 0 0 1 .38-2.461c.295-.9.757-1.737 1.362-2.465a7.3 7.3 0 0 1 2.527-1.973 7.1 7.1 0 0 1 2.05-.617 7 7 0 0 1 1.29-.072 7.2 7.2 0 0 1 2.479.537c.012.005.026.01.028.025.001.02-.016.026-.03.032l-.27.105q-.883.343-1.722.783a11.4 11.4 0 0 0-1.769 1.134c-.48.382-.919.806-1.275 1.315a3.4 3.4 0 0 0-.532 1.12c-.132.518-.1 1.032.05 1.541.11.377.276.73.459 1.073.231.435.493.851.734 1.28.219.39.423.788.558 1.219.093.3.15.609.143.925a2.6 2.6 0 0 1-.309 1.176c-.227.438-.538.807-.885 1.147-.32.314-.668.591-1.027.855-.053.04-.094.038-.149.01a7.4 7.4 0 0 1-1.458-.977 7.5 7.5 0 0 1-1.4-1.598A7.63 7.63 0 0 1 4.5 12.093"/><path fill="#f5342e" d="M9.035 18.93c.014-.032.047-.033.073-.042q.787-.287 1.545-.642a14 14 0 0 0 1.715-.948q.64-.417 1.2-.938c.366-.345.69-.723.942-1.158.204-.352.342-.728.387-1.134a2.9 2.9 0 0 0-.103-1.097 5.4 5.4 0 0 0-.487-1.127c-.237-.433-.506-.848-.754-1.274a7 7 0 0 1-.55-1.126 2.85 2.85 0 0 1-.178-1.191c.02-.278.092-.545.204-.801.168-.386.41-.723.691-1.033.411-.455.889-.833 1.387-1.188.055-.04.1-.044.161-.014.53.266 1.025.582 1.482.958a7.6 7.6 0 0 1 1.244 1.3 7.4 7.4 0 0 1 1.48 3.924c.016.236.031.472.024.71a7.7 7.7 0 0 1-.324 2.034 7.5 7.5 0 0 1-2.08 3.319 7.65 7.65 0 0 1-7.985 1.514c-.027-.012-.059-.015-.074-.045"/></svg>
